svg/u1f4b0.svg

<svg viewBox="0 0 128 128" xmlns="http://www.w3.org/2000/svg">
  <g id="Layer_1_copy">
    <g>
      <linearGradient id="SVGID_4_" gradientTransform="matrix(0.9922 0.1244 -0.1244 0.9922 -16.4787 -22.858)" gradientUnits="userSpaceOnUse" x1="90.7879" x2="90.7879" y1="52.2334" y2="52.2334">
        <stop offset="2.331792e-03" stop-color="#5D4037"/>
        <stop offset="1" stop-color="#795548"/>
      </linearGradient>
      <path d="M67.11,40.26" fill="none" stroke="url(#SVGID_4_)" stroke-width="6.521" stroke-linecap="round" stroke-miterlimit="10"/>
      <g>
        <g>
          <path d="M93.46,39.45c6.71-1.49,15.45-8.15,16.78-11.43c0.78-1.92-3.11-4.92-4.15-6.13 c-2.38-2.76-1.42-4.12-0.5-7.41c1.05-3.74-1.44-7.87-4.97-9.49c-3.53-1.62-7.75-1.11-11.3,0.47s-6.58,4.12-9.55,6.62 c-2.17-1.37-5.63-7.42-11.23-3.49c-3.87,2.71-4.22,8.61-3.72,13.32c1.17,10.87,3.85,16.51,8.9,18.03 C80.1,41.86,87.16,40.85,93.46,39.45z" fill="#FFCA28"/>
          <path d="M104.36,8.18c-0.85,14.65-15.14,24.37-21.92,28.65l4.4,3.78c0,0,2.79,0.06,6.61-1.16 c6.55-2.08,16.12-7.96,16.78-11.43c0.97-5.05-4.21-3.95-5.38-7.94C104.24,17.97,107.82,13.98,104.36,8.18z" fill="#E2A610"/>
          <path d="M79.78,12.09c0,0-2.55-2.61-4.44-3.8c-0.94,1.77-1.61,3.69-1.94,5.67 c-0.59,3.48,0,8.42,1.39,12.1c0.22,0.57,1.04,0.48,1.13-0.12C77.12,18.03,79.78,12.09,79.78,12.09z" fill="#E2A610"/>
        </g>
        <path d="M61.96,38.16c0,0-31.19,3.37-45.26,30.45s-2.11,43.5,10.55,49.48 c12.66,5.98,44.56,8.09,65.31,3.17s25.94-15.12,24.97-24.97c-1.41-14.38-14.77-23.22-14.77-23.22s0.53-17.76-13.25-29.29 C77.28,33.54,61.96,38.16,61.96,38.16z" fill="#FFCA28"/>
      </g>
      <path d="M74.76,83.73c-6.69-8.44-14.59-9.57-17.12-12.6c-1.38-1.65-2.19-3.32-1.88-5.39 c0.33-2.2,2.88-3.72,4.86-4.09c2.31-0.44,7.82-0.21,12.45,4.2c1.1,1.04,0.7,2.66,0.67,4.11c-0.08,3.11,4.37,6.13,7.97,3.53 c3.61-2.61,0.84-8.42-1.49-11.24c-1.76-2.13-8.14-6.82-16.07-7.56c-2.23-0.21-11.2-1.54-16.38,8.31 c-1.49,2.83-2.04,9.67,5.76,15.45c1.63,1.21,10.09,5.51,12.44,8.3c4.07,4.83,1.28,9.08-1.9,9.64c-8.67,1.52-13.58-3.17-14.49-5.74 c-0.65-1.83,0.03-3.81-0.81-5.53c-0.86-1.77-2.62-2.47-4.48-1.88c-6.1,1.94-4.16,8.61-1.46,12.28c2.89,3.93,6.44,6.3,10.43,7.6 c14.89,4.85,22.05-2.81,23.3-8.42C77.48,90.59,77.38,87.03,74.76,83.73z" fill="#6B4B46"/>
      <path d="M71.16,48.99 c-12.67,27.06-14.85,61.23-14.85,61.23" fill="none" stroke="#6B4B46" stroke-width="5" stroke-miterlimit="10"/>
      <path d="M81.67,31.96c8.44,2.75,10.31,10.38,9.7,12.46c-0.73,2.44-10.08-7.06-23.98-6.49 c-4.86,0.2-3.45-2.78-1.2-4.5C69.16,31.16,74.15,29.52,81.67,31.96z" fill="#6D4C41"/>
      <path d="M81.67,31.96c8.44,2.75,10.31,10.38,9.7,12.46c-0.73,2.44-10.08-7.06-23.98-6.49 c-4.86,0.2-3.45-2.78-1.2-4.5C69.16,31.16,74.15,29.52,81.67,31.96z" fill="#6B4B46"/>
    </g>
    <path d="M96.49,58.86c1.06-0.73,4.62,0.53,5.62,7.5c0.49,3.41,0.64,6.71,0.64,6.71s-4.2-3.77-5.59-6.42 C95.41,63.3,94.73,60.06,96.49,58.86z" fill="#E2A610"/>
  </g>
</svg>

<svg viewBox="0 0 128 128" xmlns="http://www.w3.org/2000/svg">
  <defs>
    <linearGradient id="SVGID_4_" gradientTransform="matrix(0.9922 0.1244 -0.1244 0.9922 0 0)" gradientUnits="userSpaceOnUse" x1="71.592974" x2="71.592974" y1="31.602326" y2="31.602326">
      <stop offset="2.331792e-03" stop-color="#5D4037"/>
      <stop offset="1" stop-color="#795548"/>
    </linearGradient>
  </defs>
  <path d="M93.46,39.45 C100.17,37.96 108.91,31.3 110.24,28.02 C111.02,26.1 107.13,23.1 106.09,21.89 C103.71,19.13 104.67,17.77 105.59,14.48 C106.64,10.74 104.15,6.61 100.62,4.99 C97.09,3.37 92.87,3.88 89.32,5.46 C85.77,7.04 82.74,9.58 79.77,12.08 C77.6,10.71 74.14,4.66 68.54,8.59 C64.67,11.3 64.32,17.2 64.82,21.91 C65.99,32.78 68.67,38.42 73.72,39.94 C80.1,41.86 87.16,40.85 93.46,39.45 Z" fill="#FFCA28"/>
  <path d="M104.36,8.18 C103.51,22.83 89.22,32.55 82.44,36.83 L86.84,40.61 C86.84,40.61 89.63,40.67 93.45,39.45 C100,37.37 109.57,31.49 110.23,28.02 C111.2,22.97 106.02,24.07 104.85,20.08 C104.24,17.97 107.82,13.98 104.36,8.18 Z" fill="#E2A610"/>
  <path d="M79.78,12.09 C79.78,12.09 77.23,9.48 75.34,8.29 C74.4,10.06 73.73,11.98 73.4,13.96 C72.81,17.44 73.4,22.38 74.79,26.06 C75.01,26.63 75.83,26.54 75.92,25.94 C77.12,18.03 79.78,12.09 79.78,12.09 Z" fill="#E2A610"/>
  <path d="M61.96,38.16 C61.96,38.16 30.77,41.53 16.7,68.61 C2.63,95.69 14.59,112.11 27.25,118.09 C39.91,124.07 71.81,126.18 92.56,121.26 C113.31,116.34 118.5,106.14 117.53,96.29 C116.12,81.91 102.76,73.07 102.76,73.07 C102.76,73.07 103.29,55.31 89.51,43.78 C77.28,33.54 61.96,38.16 61.96,38.16 Z" fill="#FFCA28"/>
  <path d="M74.76,83.73 C68.07,75.29 60.17,74.16 57.64,71.13 C56.26,69.48 55.45,67.81 55.76,65.74 C56.09,63.54 58.64,62.02 60.62,61.65 C62.93,61.21 68.44,61.44 73.07,65.85 C74.17,66.89 73.77,68.51 73.74,69.96 C73.66,73.07 78.11,76.09 81.71,73.49 C85.32,70.88 82.55,65.07 80.22,62.25 C78.46,60.12 72.08,55.43 64.15,54.69 C61.92,54.48 52.95,53.15 47.77,63 C46.28,65.83 45.73,72.67 53.53,78.45 C55.16,79.66 63.62,83.96 65.97,86.75 C70.04,91.58 67.25,95.83 64.07,96.39 C55.4,97.91 50.49,93.22 49.58,90.65 C48.93,88.82 49.61,86.84 48.77,85.12 C47.91,83.35 46.15,82.65 44.29,83.24 C38.19,85.18 40.13,91.85 42.83,95.52 C45.72,99.45 49.27,101.82 53.26,103.12 C68.15,107.97 75.31,100.31 76.56,94.7 C77.48,90.59 77.38,87.03 74.76,83.73 Z" fill="#6B4B46"/>
  <path d="M73.424,50.05 Q65.645,66.665 61.445,90.192 Q59.341,101.978 58.805,110.379 L53.815,110.061 Q54.369,101.377 56.523,89.313 Q60.838,65.14 68.896,47.93 Z" fill="#6B4B46"/>
  <path d="M81.67,31.96 C90.11,34.71 91.98,42.34 91.37,44.42 C90.64,46.86 81.29,37.36 67.39,37.93 C62.53,38.13 63.94,35.15 66.19,33.43 C69.16,31.16 74.15,29.52 81.67,31.96 Z" fill="#6D4C41"/>
  <path d="M81.67,31.96 C90.11,34.71 91.98,42.34 91.37,44.42 C90.64,46.86 81.29,37.36 67.39,37.93 C62.53,38.13 63.94,35.15 66.19,33.43 C69.16,31.16 74.15,29.52 81.67,31.96 Z" fill="#6B4B46"/>
  <path d="M96.49,58.86 C97.55,58.13 101.11,59.39 102.11,66.36 C102.6,69.77 102.75,73.07 102.75,73.07 C102.75,73.07 98.55,69.3 97.16,66.65 C95.41,63.3 94.73,60.06 96.49,58.86 Z" fill="#E2A610"/>
</svg>
